assets/images/testimonial/star.svg

<svg width="129" height="27" viewBox="0 0 129 27" fill="none" xmlns="http://www.w3.org/2000/svg">
<g id="Group 13">
<path id="Star 1" d="M12.0489 3.19854C12.3483 2.27723 13.6517 2.27722 13.9511 3.19853L15.6942 8.56328C15.828 8.9753 16.212 9.25426 16.6452 9.25426H22.2861C23.2548 9.25426 23.6576 10.4939 22.8738 11.0633L18.3103 14.3789C17.9598 14.6335 17.8132 15.0849 17.947 15.4969L19.6902 20.8617C19.9895 21.783 18.935 22.5491 18.1513 21.9797L13.5878 18.6641C13.2373 18.4095 12.7627 18.4095 12.4122 18.6641L7.84869 21.9797C7.06498 22.5491 6.0105 21.783 6.30985 20.8617L8.05296 15.4969C8.18683 15.0849 8.04018 14.6335 7.68969 14.3789L3.12616 11.0633C2.34245 10.4939 2.74523 9.25426 3.71395 9.25426H9.35477C9.788 9.25426 10.172 8.9753 10.3058 8.56328L12.0489 3.19854Z" fill="#FFCC00"/>
<path id="Star 2" d="M38.0489 3.19854C38.3483 2.27723 39.6517 2.27722 39.9511 3.19853L41.6942 8.56328C41.828 8.9753 42.212 9.25426 42.6452 9.25426H48.2861C49.2548 9.25426 49.6576 10.4939 48.8738 11.0633L44.3103 14.3789C43.9598 14.6335 43.8132 15.0849 43.947 15.4969L45.6902 20.8617C45.9895 21.783 44.935 22.5491 44.1513 21.9797L39.5878 18.6641C39.2373 18.4095 38.7627 18.4095 38.4122 18.6641L33.8487 21.9797C33.065 22.5491 32.0105 21.783 32.3098 20.8617L34.053 15.4969C34.1868 15.0849 34.0402 14.6335 33.6897 14.3789L29.1262 11.0633C28.3425 10.4939 28.7452 9.25426 29.7139 9.25426H35.3548C35.788 9.25426 36.172 8.9753 36.3058 8.56328L38.0489 3.19854Z" fill="#FFCC00"/>
<path id="Star 3" d="M63.5455 3.32664C63.8378 2.39092 65.1622 2.39092 65.4545 3.32664L67.0872 8.55247C67.2176 8.96998 67.6043 9.25426 68.0417 9.25426H73.406C74.3652 9.25426 74.7742 10.4738 74.0089 11.0521L69.6024 14.3816C69.2656 14.6361 69.1249 15.0747 69.2508 15.4777L70.9178 20.8136C71.2078 21.7418 70.1364 22.4959 69.3605 21.9096L65.1029 18.6926C64.7461 18.423 64.2539 18.423 63.8971 18.6926L59.6395 21.9096C58.8636 22.4959 57.7922 21.7418 58.0822 20.8136L59.7492 15.4777C59.8751 15.0747 59.7344 14.6361 59.3976 14.3816L54.9911 11.0521C54.2258 10.4738 54.6348 9.25426 55.594 9.25426H60.9583C61.3957 9.25426 61.7824 8.96998 61.9128 8.55247L63.5455 3.32664Z" fill="#FFCC00"/>
<path id="Star 4" d="M89.0489 3.19854C89.3483 2.27723 90.6517 2.27722 90.9511 3.19853L92.6942 8.56328C92.828 8.9753 93.212 9.25426 93.6452 9.25426H99.2861C100.255 9.25426 100.658 10.4939 99.8738 11.0633L95.3103 14.3789C94.9598 14.6335 94.8132 15.0849 94.947 15.4969L96.6902 20.8617C96.9895 21.783 95.935 22.5491 95.1513 21.9797L90.5878 18.6641C90.2373 18.4095 89.7627 18.4095 89.4122 18.6641L84.8487 21.9797C84.065 22.5491 83.0105 21.783 83.3098 20.8617L85.053 15.4969C85.1868 15.0849 85.0402 14.6335 84.6897 14.3789L80.1262 11.0633C79.3425 10.4939 79.7452 9.25426 80.7139 9.25426H86.3548C86.788 9.25426 87.172 8.9753 87.3058 8.56328L89.0489 3.19854Z" fill="#FFCC00"/>
<path id="Star 5" d="M115.049 3.19854C115.348 2.27723 116.652 2.27722 116.951 3.19853L118.694 8.56328C118.828 8.9753 119.212 9.25426 119.645 9.25426H125.286C126.255 9.25426 126.658 10.4939 125.874 11.0633L121.31 14.3789C120.96 14.6335 120.813 15.0849 120.947 15.4969L122.69 20.8617C122.99 21.783 121.935 22.5491 121.151 21.9797L116.588 18.6641C116.237 18.4095 115.763 18.4095 115.412 18.6641L110.849 21.9797C110.065 22.5491 109.01 21.783 109.31 20.8617L111.053 15.4969C111.187 15.0849 111.04 14.6335 110.69 14.3789L106.126 11.0633C105.342 10.4939 105.745 9.25426 106.714 9.25426H112.355C112.788 9.25426 113.172 8.9753 113.306 8.56328L115.049 3.19854Z" fill="#FFCC00"/>
</g>
</svg>

<svg width="129" height="27" fill="none" xmlns="http://www.w3.org/2000/svg"><g fill="#FC0"><path d="M12.049 3.199c.3-.922 1.603-.922 1.902 0l1.743 5.364a1 1 0 0 0 .951.691h5.641c.969 0 1.372 1.24.588 1.81l-4.564 3.315a1 1 0 0 0-.363 1.118l1.743 5.365c.3.921-.755 1.687-1.539 1.118l-4.563-3.316a1 1 0 0 0-1.176 0L7.85 21.98c-.784.57-1.838-.197-1.54-1.118l1.744-5.365a1 1 0 0 0-.363-1.118l-4.564-3.316c-.784-.57-.38-1.809.588-1.809h5.64a1 1 0 0 0 .952-.69l1.743-5.365ZM38.049 3.199c.3-.922 1.603-.922 1.902 0l1.743 5.364a1 1 0 0 0 .951.691h5.641c.969 0 1.372 1.24.588 1.81l-4.564 3.315a1 1 0 0 0-.363 1.118l1.743 5.365c.3.921-.755 1.687-1.539 1.118l-4.563-3.316a1 1 0 0 0-1.176 0L33.85 21.98c-.784.57-1.838-.197-1.54-1.118l1.744-5.365a1 1 0 0 0-.363-1.118l-4.564-3.316c-.784-.57-.38-1.809.588-1.809h5.64a1 1 0 0 0 .952-.69l1.743-5.365ZM63.545 3.327c.293-.936 1.617-.936 1.91 0l1.632 5.225a1 1 0 0 0 .955.702h5.364c.96 0 1.368 1.22.603 1.798l-4.407 3.33a1 1 0 0 0-.351 1.096l1.667 5.336c.29.928-.782 1.682-1.558 1.096l-4.257-3.217a1 1 0 0 0-1.206 0L59.64 21.91c-.775.586-1.847-.168-1.557-1.096l1.667-5.336a1 1 0 0 0-.351-1.096l-4.407-3.33c-.765-.578-.356-1.798.603-1.798h5.364a1 1 0 0 0 .955-.702l1.633-5.225ZM89.049 3.199c.3-.922 1.603-.922 1.902 0l1.743 5.364a1 1 0 0 0 .951.691h5.641c.969 0 1.372 1.24.588 1.81l-4.564 3.315a1 1 0 0 0-.363 1.118l1.743 5.365c.3.921-.755 1.687-1.539 1.118l-4.563-3.316a1 1 0 0 0-1.176 0L84.85 21.98c-.784.57-1.839-.197-1.54-1.118l1.744-5.365a1 1 0 0 0-.363-1.118l-4.564-3.316c-.784-.57-.38-1.809.588-1.809h5.64a1 1 0 0 0 .952-.69l1.743-5.365ZM115.049 3.199c.299-.922 1.603-.922 1.902 0l1.743 5.364a1 1 0 0 0 .951.691h5.641c.969 0 1.372 1.24.588 1.81l-4.564 3.315a1 1 0 0 0-.363 1.118l1.743 5.365c.3.921-.755 1.687-1.539 1.118l-4.563-3.316a1 1 0 0 0-1.176 0l-4.563 3.316c-.784.57-1.839-.197-1.539-1.118l1.743-5.365a1 1 0 0 0-.363-1.118l-4.564-3.316c-.784-.57-.381-1.809.588-1.809h5.641a1 1 0 0 0 .951-.69l1.743-5.365Z"/></g></svg>
